static/logos/logtail-wordmark-color.svg

<svg width="100" height="22" viewBox="0 0 100 22" fill="none" xmlns="http://www.w3.org/2000/svg">
<g clip-path="url(#clip0_1_2125)">
<path d="M32.6094 16.5696H43.0228V13.6831H35.9621V1.02699H32.6094V16.5696ZM49.7267 16.7473C53.1682 16.7473 55.6329 14.3048 55.6329 10.9743C55.6329 7.64364 53.1682 5.20124 49.7267 5.20124C46.2851 5.20124 43.8204 7.64364 43.8204 10.9743C43.8204 14.3048 46.2851 16.7473 49.7267 16.7473ZM49.7267 14.0828C48.0614 14.0828 46.929 12.8172 46.929 10.9743C46.929 9.10908 48.0614 7.84357 49.7267 7.84357C51.392 7.84357 52.5243 9.10908 52.5243 10.9743C52.5243 12.8172 51.392 14.0828 49.7267 14.0828ZM63.503 14.2826H60.5277C59.9282 14.2826 59.5952 14.0828 59.5952 13.6609C59.5952 13.3722 59.7727 13.1502 60.1059 12.7949C60.6166 12.9281 61.1938 13.017 61.7933 13.017C64.5022 13.017 66.3448 11.4849 66.3448 9.10908C66.3448 8.26539 66.1008 7.5327 65.6788 6.93315L67.1221 5.22347L65.2794 3.66923L63.7251 5.51211C63.1478 5.31231 62.5038 5.20124 61.7933 5.20124C59.1289 5.20124 57.2638 6.75548 57.2638 9.10908C57.2638 10.0638 57.5525 10.8854 58.0853 11.5071C57.1971 12.2842 56.6421 13.017 56.6421 14.0383C56.6421 14.6378 56.9085 15.1708 57.3525 15.5926C56.6865 16.1699 56.2646 17.0137 56.2646 17.7464C56.2646 19.8113 57.3304 21.0991 60.1502 21.0991H63.5919C65.9008 21.0991 67.3661 19.6337 67.3661 17.5021C67.3661 15.5038 65.7901 14.2826 63.503 14.2826ZM61.7933 7.5549C62.7481 7.5549 63.4586 8.17658 63.4586 9.10908C63.4586 10.0417 62.7481 10.6412 61.7933 10.6412C60.8608 10.6412 60.1502 10.0417 60.1502 9.10908C60.1502 8.17658 60.8608 7.5549 61.7933 7.5549ZM63.4364 18.6345H60.3057C59.684 18.6345 59.2843 18.1238 59.2843 17.5466C59.2843 17.1913 59.3731 16.9248 59.6395 16.6139C59.9504 16.6584 60.2834 16.6805 60.6166 16.6805H63.281C64.036 16.6805 64.3467 17.0359 64.3467 17.6576C64.3467 18.1904 64.1469 18.6345 63.4364 18.6345ZM70.2781 2.07056V4.60182C70.2781 5.15687 69.9674 5.37891 69.5008 5.37891H68.1241V7.95451H70.2781V12.5063C70.2781 15.1042 71.9435 16.5696 74.5189 16.5696H76.3616V13.7719H74.9409C73.9415 13.7719 73.3642 13.2612 73.3642 12.1733V7.95451H76.3616V5.37891H73.3642V2.07056H70.2781ZM82.7182 16.7473C84.0283 16.7473 85.205 16.2143 85.7603 15.3928V16.5696H88.8684V5.37891H85.7603V6.48908C85.1383 5.71201 84.0283 5.20124 82.6736 5.20124C79.4101 5.20124 77.4335 7.48823 77.4335 10.9743C77.4335 14.4603 79.4101 16.7473 82.7182 16.7473ZM83.2069 14.0828C81.5635 14.0828 80.4755 12.8394 80.4755 10.9743C80.4755 9.08694 81.5635 7.84357 83.2069 7.84357C84.8723 7.84357 85.9603 9.08694 85.9603 10.9743C85.9603 12.8394 84.8723 14.0828 83.2069 14.0828ZM91.1875 0.42749V3.71364H94.5843V0.42749H91.1875ZM91.3202 16.5696H94.4289V5.37891H91.3202V16.5696ZM96.8755 16.5696H99.9616V0.516306H96.8755V16.5696Z" fill="#222838"/>
<path d="M11.996 7.41949H2.76829C1.2394 7.41949 0 8.65891 0 10.1878C0 11.7166 1.2394 12.9561 2.76829 12.9561H11.996C13.5249 12.9561 14.7643 11.7166 14.7643 10.1878C14.7643 8.65891 13.5249 7.41949 11.996 7.41949Z" fill="#B8BFD1"/>
<path d="M17.5297 14.8016H13.8386C12.3097 14.8016 11.0703 16.041 11.0703 17.5699C11.0703 19.0988 12.3097 20.3382 13.8386 20.3382H17.5297C19.0585 20.3382 20.2979 19.0988 20.2979 17.5699C20.2979 16.041 19.0585 14.8016 17.5297 14.8016Z" fill="#B8BFD1"/>
<path d="M17.5332 0.0374756H10.1511C8.62223 0.0374756 7.38281 1.27688 7.38281 2.80577C7.38281 4.33465 8.62223 5.57406 10.1511 5.57406H17.5332C19.0621 5.57406 20.3015 4.33465 20.3015 2.80577C20.3015 1.27688 19.0621 0.0374756 17.5332 0.0374756Z" fill="#222838"/>
</g>
<defs>
<clipPath id="clip0_1_2125">
<rect width="100" height="21.1003" fill="white"/>
</clipPath>
</defs>
</svg>

<svg xmlns="http://www.w3.org/2000/svg" width="290.909" height="64" fill="none" viewBox="0 0 100 22"><g clip-path="url(#a)"><path fill="#222838" d="M32.61 16.57h10.413v-2.887h-7.06V1.027h-3.354V16.57Zm17.117.177c3.441 0 5.906-2.442 5.906-5.773 0-3.33-2.465-5.773-5.906-5.773-3.442 0-5.907 2.443-5.907 5.773 0 3.33 2.465 5.773 5.907 5.773Zm0-2.664c-1.666 0-2.798-1.266-2.798-3.109 0-1.865 1.132-3.13 2.798-3.13 1.665 0 2.797 1.265 2.797 3.13 0 1.843-1.132 3.109-2.797 3.109Zm13.776.2h-2.975c-.6 0-.933-.2-.933-.622 0-.289.178-.51.51-.866.512.133 1.089.222 1.688.222 2.71 0 4.552-1.532 4.552-3.908 0-.844-.244-1.576-.666-2.176l1.443-1.71L65.28 3.67l-1.554 1.843a5.875 5.875 0 0 0-1.932-.31c-2.664 0-4.53 1.553-4.53 3.907 0 .955.29 1.776.822 2.398-.888.777-1.443 1.51-1.443 2.531 0 .6.266 1.133.71 1.555-.665.577-1.087 1.42-1.087 2.153 0 2.065 1.065 3.353 3.885 3.353h3.442c2.309 0 3.774-1.465 3.774-3.597 0-1.998-1.576-3.22-3.863-3.22Zm-1.71-6.728c.955 0 1.666.622 1.666 1.554 0 .933-.71 1.532-1.666 1.532-.932 0-1.643-.6-1.643-1.532s.71-1.554 1.643-1.554Zm1.643 11.08h-3.13c-.622 0-1.022-.511-1.022-1.088 0-.356.09-.622.355-.933.311.044.644.066.978.066h2.664c.755 0 1.066.356 1.066.978 0 .532-.2.976-.91.976ZM70.278 2.07V4.6c0 .556-.31.778-.777.778h-1.377v2.576h2.154v4.551c0 2.598 1.665 4.064 4.24 4.064h1.844v-2.798H74.94c-1 0-1.577-.51-1.577-1.599V7.955h2.998V5.379h-2.998V2.07h-3.086Zm12.44 14.676c1.31 0 2.487-.533 3.042-1.354v1.177h3.108V5.379H85.76v1.11c-.622-.777-1.732-1.288-3.086-1.288-3.264 0-5.24 2.287-5.24 5.773 0 3.486 1.976 5.773 5.284 5.773Zm.489-2.664c-1.643 0-2.731-1.244-2.731-3.109 0-1.887 1.088-3.13 2.73-3.13 1.666 0 2.754 1.243 2.754 3.13 0 1.865-1.088 3.109-2.753 3.109ZM91.187.427v3.287h3.397V.427h-3.397Zm.133 16.143h3.109V5.379H91.32v11.19Zm5.556 0h3.086V.516h-3.087V16.57Z"/><path fill="#B8BFD1" d="M11.996 7.42H2.768a2.768 2.768 0 0 0 0 5.536h9.228a2.768 2.768 0 0 0 0-5.537ZM17.53 14.802h-3.691a2.768 2.768 0 1 0 0 5.536h3.69a2.768 2.768 0 0 0 0-5.536Z"/><path fill="#222838" d="M17.533.037h-7.382a2.768 2.768 0 0 0 0 5.537h7.382a2.768 2.768 0 1 0 0-5.537Z"/></g><defs><clipPath id="a"><path fill="#fff" d="M0 0h100v21.1H0z"/></clipPath></defs></svg>
